X:3144
T:Cock of the North
R:Jig
O:Scotland
M:6/8
K:A
e2d |\
cdc cBA | cde f2e | cdc cBA | B3 e2d |\
cdc cBA | Ace f2e | cec BdB | A3-A2 :|*
|:e |\
a2e f2e | a2e f2e | c2e cBA |B3 c2e |\
a2e f2e | a2e f2e | cec BdB | A3-A2 :|**


